z_dist/img/bg/bp390/main-header-wave.svg

<svg width="390" height="876" fill="none" xmlns="http://www.w3.org/2000/svg"><path fill-rule="evenodd" clip-rule="evenodd" d="M390 0H0v839.242h16.25c16.25 0 48.75 0 81.25 1.873 32.5 1.874 65 5.621 97.5 13.115 9.286 2.141 18.572 4.589 27.857 7.036 23.215 6.118 46.429 12.235 69.643 13.574 32.5 1.873 64.999-5.621 81.249-9.368h.001l16.25-3.747V0z" fill="#FFFCFF"/></svg>

<svg width="390" height="876" viewBox="0 0 390 876" fill="none" xmlns="http://www.w3.org/2000/svg">
<path fill-rule="evenodd" clip-rule="evenodd" d="M390 0H0V828V839.242H16.25C32.5 839.242 65 839.242 97.5 841.115C130 842.989 162.5 846.736 195 854.23C204.286 856.371 213.572 858.819 222.857 861.266C246.072 867.384 269.286 873.501 292.5 874.84C325 876.713 357.499 869.219 373.749 865.472L373.75 865.472L390 861.725V828V0Z" fill="#FFFCFF"/>
</svg>
